Themes/OneUI/assets/svg/translate.svg

<?xml version="1.0" encoding="UTF-8" standalone="no"?>
<svg
   width="22"
   height="20"
   viewBox="0 0 22 20"
   fill="none"
   version="1.1"
   id="svg2480"
   sodipodi:docname="translate.svg"
   xmlns:inkscape="http://www.inkscape.org/namespaces/inkscape"
   xmlns:sodipodi="http://sodipodi.sourceforge.net/DTD/sodipodi-0.dtd"
   xmlns="http://www.w3.org/2000/svg"
   xmlns:svg="http://www.w3.org/2000/svg">
  <defs
     id="defs2484" />
  <sodipodi:namedview
     id="namedview2482"
     pagecolor="#ffffff"
     bordercolor="#666666"
     borderopacity="1.0"
     inkscape:showpageshadow="2"
     inkscape:pageopacity="0.0"
     inkscape:pagecheckerboard="0"
     inkscape:deskcolor="#d1d1d1" />
  <path
     d="M 11.87,13.07 9.33,10.56 9.36,10.53 C 11.1,8.59 12.34,6.36 13.07,4 H 16 V 2 H 9 V 0 H 7 V 2 H 0 V 3.99 H 11.17 C 10.5,5.92 9.44,7.75 8,9.35 7.07,8.32 6.3,7.19 5.69,6 h -2 c 0.73,1.63 1.73,3.17 2.98,4.56 L 1.58,15.58 3,17 8,12 11.11,15.11 Z M 17.5,8 h -2 L 11,20 h 2 l 1.12,-3 h 4.75 L 20,20 h 2 z m -2.62,7 1.62,-4.33 1.62,4.33 z"
     fill="#000000"
     id="path2478" />
</svg>

<svg width="22" height="20" viewBox="0 0 22 20" fill="none" xmlns="http://www.w3.org/2000/svg">
<path d="M11.87 13.07L9.33 10.56L9.36 10.53C11.1 8.59 12.34 6.36 13.07 4H16V2H9V0H7V2H0V3.99H11.17C10.5 5.92 9.44 7.75 8 9.35C7.07 8.32 6.3 7.19 5.69 6H3.69C4.42 7.63 5.42 9.17 6.67 10.56L1.58 15.58L3 17L8 12L11.11 15.11L11.87 13.07ZM17.5 8H15.5L11 20H13L14.12 17H18.87L20 20H22L17.5 8ZM14.88 15L16.5 10.67L18.12 15H14.88Z" fill="black"/>
</svg>
